images/socials-icon-4.svg

<svg width="18" height="18" viewBox="0 0 18 18" fill="none" xmlns="http://www.w3.org/2000/svg">
<g clip-path="url(#clip0_3840_18432)">
<path d="M7.06288 11.386L6.76513 15.574C7.19113 15.574 7.37563 15.391 7.59688 15.1713L9.59413 13.2625L13.7326 16.2933C14.4916 16.7163 15.0264 16.4935 15.2311 15.595L17.9476 2.86605L17.9484 2.8653C18.1891 1.7433 17.5426 1.30455 16.8031 1.5798L0.835633 7.69305C-0.254116 8.11605 -0.237616 8.72355 0.650383 8.9988L4.73263 10.2685L14.2149 4.3353C14.6611 4.0398 15.0669 4.2033 14.7331 4.4988L7.06288 11.386Z" fill="#DCB62F"/>
</g>
<defs>
<clipPath id="clip0_3840_18432">
<rect width="18" height="18" fill="white"/>
</clipPath>
</defs>
</svg>

<svg width="18" height="18" fill="none" xmlns="http://www.w3.org/2000/svg"><g clip-path="url(#clip0_3840_18432)"><path d="M7.063 11.386l-.298 4.188c.426 0 .61-.183.832-.403l1.997-1.909 4.139 3.031c.759.423 1.293.2 1.498-.698l2.717-12.729c.241-1.123-.405-1.561-1.145-1.286L.836 7.693C-.254 8.116-.238 8.723.65 9l4.083 1.27 9.482-5.934c.446-.295.852-.132.518.164l-7.67 6.887z" fill="#DCB62F"/></g><defs><clipPath id="clip0_3840_18432"><path fill="#fff" d="M0 0h18v18H0z"/></clipPath></defs></svg>
